src/img/edit.svg

<svg width="10" height="12" viewBox="0 0 10 12" fill="none" xmlns="http://www.w3.org/2000/svg">
<path d="M9.37511 10.7965H0.626716C0.460986 10.7965 0.302044 10.8599 0.184856 10.9728C0.0676668 11.0856 0.00183072 11.2387 0.00183072 11.3983C0.00183072 11.5578 0.0676668 11.7109 0.184856 11.8238C0.302044 11.9366 0.460986 12 0.626716 12H9.37511C9.54084 12 9.69979 11.9366 9.81698 11.8238C9.93416 11.7109 10 11.5578 10 11.3983C10 11.2387 9.93416 11.0856 9.81698 10.9728C9.69979 10.8599 9.54084 10.7965 9.37511 10.7965Z" fill="#2E5BFF"/>
<path d="M0.627512 9.5931H0.683752L3.28953 9.36444C3.57497 9.33706 3.84195 9.21595 4.04564 9.02144L9.66961 3.60578C9.88789 3.38371 10.0059 3.08738 9.99766 2.78171C9.98946 2.47605 9.85576 2.18597 9.62586 1.97506L7.91368 0.326288C7.69021 0.124161 7.39739 0.0081834 7.09091 0.000416861C6.78443 -0.00734968 6.48568 0.093637 6.25148 0.284167L0.627512 5.69983C0.425528 5.89598 0.299762 6.15307 0.271327 6.42794L0.00262636 8.9372C-0.00579149 9.02534 0.00608469 9.11417 0.0374083 9.19738C0.0687318 9.28059 0.118731 9.35612 0.183843 9.41859C0.242233 9.47436 0.31148 9.51849 0.387614 9.54843C0.463749 9.57838 0.545273 9.59356 0.627512 9.5931ZM7.04509 1.16873L8.75103 2.81148L7.50125 3.98487L5.82656 2.37221L7.04509 1.16873ZM1.48361 6.53024L5.00171 3.16651L6.6889 4.79121L3.18954 8.16095L1.31489 8.32944L1.48361 6.53024Z" fill="#2E5BFF"/>
</svg>

<svg width="10" height="12" fill="none" xmlns="http://www.w3.org/2000/svg"><path d="M9.375 10.796H.627a.637.637 0 00-.442.177.59.59 0 00-.183.425c0 .16.066.313.183.426A.637.637 0 00.627 12h8.748a.637.637 0 00.442-.176.59.59 0 00.183-.426.59.59 0 00-.183-.425.637.637 0 00-.442-.177zM.628 9.593h.056l2.606-.229a1.27 1.27 0 00.756-.343L9.67 3.606c.218-.222.336-.519.328-.824a1.136 1.136 0 00-.372-.807L7.914.326A1.275 1.275 0 007.09 0a1.28 1.28 0 00-.84.284L.628 5.7a1.185 1.185 0 00-.357.728l-.268 2.51a.581.581 0 00.18.48.627.627 0 00.445.175zM7.045 1.17l1.706 1.64-1.25 1.174-1.674-1.613L7.045 1.17zM1.484 6.53l3.518-3.363L6.689 4.79l-3.5 3.37-1.874.168.169-1.799z" fill="#2E5BFF"/></svg>
